X: 2
T: Galway Bay
R: hornpipe
M: 4/4
L: 1/8
K: Gmin
GA|BABc dcd^f|g^fga gabg|=fdbg fdcd|BAG^F GFDF|G2GA BABG|=F2FG AGFD|GABc dcBA|B2G2G2:||:g2|gfd^f gabg|g=fdf GFDF|BABc dcd=e|fcdB AGFD|G^FGA BABc|BFdB AFec|d^fga bag=f|d2g2g2:|


Tune 3453	Setting 10145

